src/assets/icons/filters/categories/gamepad_stroke.svg

<svg width="48" height="42" viewBox="0 0 48 42" fill="none" xmlns="http://www.w3.org/2000/svg">
<path fill-rule="evenodd" clip-rule="evenodd" d="M36.5884 38.3412C35.2057 39.3879 33.4761 38.6508 30.7742 37.3657C29.8579 36.9171 28.9229 36.5079 27.9716 36.1394C27.8787 36.0557 27.7905 35.9659 27.6712 35.9071L21.6728 32.9466C21.3177 32.77 20.9074 32.7404 20.5307 32.8642C20.1539 32.9879 19.8411 33.255 19.6599 33.6077C19.5718 33.7818 19.5193 33.9717 19.5053 34.1662C19.4913 34.3608 19.5162 34.5562 19.5784 34.7411C19.6407 34.9259 19.7391 35.0966 19.8679 35.2431C19.9967 35.3896 20.1534 35.509 20.3288 35.5943L20.8552 35.8529C19.5732 36.2586 18.3577 36.8284 17.2274 37.3657C14.5223 38.6508 12.7959 39.3848 11.4132 38.3412C6.3809 34.5383 2.99923 27.1866 2.99923 20.0439C2.99923 7.44774 13.8472 2.95897 24 2.95897C34.1512 2.95897 44.9992 7.44929 44.9992 20.0439C44.9992 27.1866 41.6191 34.5383 36.5884 38.3412ZM24 0C38.5796 0 48 7.8689 48 20.0439C48 28.0583 44.1476 36.3561 38.4124 40.6901C35.4952 42.895 32.2963 41.3745 29.472 40.032C27.6573 39.1695 25.7806 38.2777 24 38.2777C22.2209 38.2777 20.3458 39.1695 18.5295 40.032C16.7396 40.8836 14.7979 41.8049 12.8748 41.8065C11.6854 41.8152 10.5277 41.4224 9.58916 40.6916C3.85548 36.3561 0 28.0583 0 20.0423C0 7.8689 9.42194 0 24 0ZM17.0323 18.5806H15.4839V17.0323C15.4839 16.6216 15.3207 16.2278 15.0304 15.9374C14.74 15.647 14.3461 15.4839 13.9355 15.4839C13.5248 15.4839 13.131 15.647 12.8406 15.9374C12.5502 16.2278 12.3871 16.6216 12.3871 17.0323V18.5806H10.8387C10.4281 18.5806 10.0342 18.7438 9.74383 19.0342C9.45346 19.3245 9.29032 19.7184 9.29032 20.129C9.29032 20.5397 9.45346 20.9335 9.74383 21.2239C10.0342 21.5143 10.4281 21.6774 10.8387 21.6774H12.3871V23.2258C12.3871 23.6365 12.5502 24.0303 12.8406 24.3207C13.131 24.6111 13.5248 24.7742 13.9355 24.7742C14.3461 24.7742 14.74 24.6111 15.0304 24.3207C15.3207 24.0303 15.4839 23.6365 15.4839 23.2258V21.6774H17.0323C17.4429 21.6774 17.8368 21.5143 18.1271 21.2239C18.4175 20.9335 18.5806 20.5397 18.5806 20.129C18.5806 19.7184 18.4175 19.3245 18.1271 19.0342C17.8368 18.7438 17.4429 18.5806 17.0323 18.5806ZM32.9652 23.6594C32.6865 23.9535 32.5161 24.3592 32.5161 24.7649C32.5161 25.169 32.6865 25.5747 32.9652 25.8705C33.2594 26.1507 33.6619 26.3226 34.0645 26.3226C34.4671 26.3226 34.8697 26.1523 35.1639 25.8705C35.4426 25.5747 35.6129 25.169 35.6129 24.7649C35.6129 24.3592 35.4426 23.9535 35.1639 23.6578C34.591 23.0818 33.5381 23.0818 32.9652 23.6578V23.6594ZM28.32 19.0142C28.0413 19.3084 27.871 19.7141 27.871 20.1197C27.871 20.5394 28.0413 20.9295 28.32 21.2253C28.6142 21.5055 29.0168 21.6774 29.4194 21.6774C29.8374 21.6774 30.2245 21.5071 30.5187 21.2253C30.7974 20.9295 30.9677 20.5394 30.9677 20.1197C30.9677 19.7141 30.7974 19.3084 30.5187 19.0126C29.9458 18.4366 28.8929 18.4366 28.32 19.0126V19.0142ZM37.6103 19.0142C37.3316 19.3084 37.1613 19.7141 37.1613 20.1197C37.1613 20.5394 37.3316 20.9295 37.6103 21.2253C37.9045 21.5055 38.3071 21.6774 38.7097 21.6774C39.1123 21.6774 39.5148 21.5071 39.809 21.2253C40.0877 20.9295 40.2581 20.5394 40.2581 20.1197C40.2581 19.7141 40.0877 19.3084 39.809 19.0126C39.2361 18.4366 38.1832 18.4366 37.6103 19.0126V19.0142ZM32.9652 14.369C32.6865 14.6632 32.5161 15.0689 32.5161 15.4746C32.5161 15.8787 32.6865 16.2844 32.9652 16.5801C33.2594 16.8604 33.6619 17.0323 34.0645 17.0323C34.4671 17.0323 34.8697 16.8619 35.1639 16.5801C35.4426 16.2844 35.6129 15.8787 35.6129 15.4746C35.6129 15.0689 35.4426 14.6632 35.1639 14.3675C34.591 13.7915 33.5535 13.7915 32.9652 14.3675V14.369Z" fill="black"/>
</svg>

<svg width="48" height="42" viewBox="0 0 48 42" fill="none" xmlns="http://www.w3.org/2000/svg"><path fill-rule="evenodd" clip-rule="evenodd" d="M36.588 38.341c-1.382 1.047-3.112.31-5.814-.975a35.703 35.703 0 00-2.802-1.227c-.093-.083-.181-.173-.3-.232l-6-2.96a1.508 1.508 0 00-2.012.66 1.47 1.47 0 00.669 1.987l.526.259c-1.282.406-2.497.975-3.628 1.513-2.705 1.285-4.431 2.019-5.814.975C6.381 34.538 3 27.187 3 20.044 3 7.448 13.847 2.959 24 2.959c10.151 0 21 4.49 21 17.085 0 7.143-3.38 14.494-8.412 18.297zM24 0c14.58 0 24 7.869 24 20.044 0 8.014-3.852 16.312-9.588 20.646-2.917 2.205-6.116.684-8.94-.658-1.815-.862-3.691-1.754-5.472-1.754-1.78 0-3.654.892-5.47 1.754-1.79.852-3.732 1.773-5.655 1.775a5.285 5.285 0 01-3.286-1.115C3.855 36.356 0 28.058 0 20.042 0 7.87 9.422 0 24 0zm-6.968 18.58h-1.548v-1.548a1.549 1.549 0 00-3.097 0v1.549H10.84a1.548 1.548 0 000 3.096h1.548v1.549a1.548 1.548 0 103.097 0v-1.549h1.548a1.548 1.548 0 100-3.096zm15.933 5.08c-.279.293-.449.7-.449 1.105 0 .404.17.81.45 1.105.293.28.696.453 1.099.453.402 0 .805-.17 1.099-.453.279-.295.449-.701.449-1.105 0-.406-.17-.812-.45-1.107-.572-.576-1.625-.576-2.198 0v.001zm-4.645-4.646c-.279.294-.449.7-.449 1.106 0 .42.17.81.449 1.105.294.28.697.452 1.1.452.417 0 .804-.17 1.099-.452.278-.296.449-.686.449-1.105 0-.406-.17-.812-.45-1.107-.572-.576-1.625-.576-2.198 0v.001zm9.29 0c-.278.294-.449.7-.449 1.106 0 .42.17.81.45 1.105.294.28.696.452 1.099.452.402 0 .805-.17 1.099-.452.279-.296.45-.686.45-1.105 0-.406-.171-.812-.45-1.107-.573-.576-1.626-.576-2.199 0v.001zm-4.645-4.645c-.279.294-.449.7-.449 1.106 0 .404.17.81.45 1.105.293.28.696.452 1.099.452.402 0 .805-.17 1.099-.452.279-.296.449-.701.449-1.105 0-.406-.17-.812-.45-1.107-.572-.577-1.61-.577-2.198 0v.001z" fill="#000"/></svg>
